X:1
T:Joy Unspeakable
T:Barney Elliott Warren, 1900
T:Joy Unspeakable
T:Public Domain
T:Public Domain
C:Barney Elliott Warren, 1900
Z:Public Domain
%%score ( 1 2 ) 3
L:1/8
M:4/4
K:Bb
V:1 treble 
V:2 treble 
V:3 bass 
V:1
 [DF][DF] | [DB]2 [DB]2 [Fd]2 [FB]2 | [GB]2 [EG]2 [DF]2 [DF][DF] | [EF]2 [EG]2 [EA]2 [EB]2 | %4
w: 1.~I have|found His grace is|all com- plete, He sup-|pli- eth ev- ’ry|
w: 2.~I have|found the plea- sure|I once craved, It is|joy and peace with-|
w: 3.~I have|found that hope so|bright and clear, Liv- ing|in the realm of|
w: 4.~I have|found the joy no|tongue can tell, How its|waves of glo- ry|
 [Fc]6 [EF][EF] | [DB]2 [DB]2 [Fd]2 [FB]2 | [GB]2 [EG]2 [DF]2 [Fd][Fd] | [Fc]2 [GB]2 [FA]2 [=EG]2 | %8
w: need; While I|sit and learn at|Je- sus’ feet, I am|free, yes, free in-|
w: in; What a|wond- rous bless- ing!|I am saved From the|aw- ful gulf of|
w: grace; Oh, the|Sav- ior’s pre- sence|is so near, I can|see His smil- ing|
w: roll! It is|like a great o’er-|flow- ing well, Spring- ing|up with- in my|
 (F2 CD E2) ||"^Refrain" [EF][EF] | [DB]2 [DB]2 [Fd][Ec][DB][EG] | [DF]2 [B,D]2 [DF]2 [DB]2 | %12
w: deed. * * *||||
w: sin. * * *||||
w: face. * * *||||
w: soul. * * *||||
 [EA]2 [EF]2 [EA]2 [Ec]2 | [DB]2 [DF]2 [DB][Fd][DF][DF] | [DB]2 [DB]2 [Fd][Ec][DB][EG] | %15
w: |||
w: |||
w: |||
w: |||
 [DF]2 [B,D]2 [DF][DB][DB][FA] | [EG]2 [Gc]2 [FB][EA][EG][EA] | [DB]6 |] %18
w: |||
w: |||
w: |||
w: |||
V:2
 x2 | x8 | x8 | x8 | x8 | x8 | x8 | x8 | F6 || x2 | x8 | x8 | x8 | x8 | x8 | x8 | x8 | x6 |] %18
V:3
 [B,,B,][B,,B,] | [B,,F,]2 [B,,F,]2 [B,,B,]2 [D,B,]2 | [E,B,]2 [E,B,]2 [B,,B,]2 [B,,B,][B,,B,] | %3
w: ~ ~|~ ~ ~ ~|~ ~ ~ ~ ~|
 [F,A,]2 [F,B,]2 [F,C]2 [F,B,]2 | [F,A,]6 [F,A,][F,A,] | [B,,B,]2 [B,,F,]2 [B,,B,]2 [D,B,]2 | %6
w: ~ ~ ~ ~|~ ~ ~|~ ~ ~ ~|
 [E,B,]2 [E,B,]2 [B,,B,]2 [B,,B,][B,,B,] | [C,A,]2 [C,C]2 [C,C]2 [C,B,]2 | [F,A,]6 || %9
w: ~ ~ ~ ~ ~|~ ~ ~ ~|~|
 [F,A,][F,A,] | [B,,B,]2 [B,,F,]2 [B,,B,][B,,B,][B,,B,][B,,B,] | %11
w: It is|joy un- speak- a- ble and|
 [B,,B,]2 [B,,F,]2 [B,,B,]2 [B,,B,]2 | [F,C]2 [F,A,]2 [F,C]2 [F,A,]2 | %13
w: full of glo- ry,|Full of glo- ry,|
 [B,,B,]2 [B,,B,]2 [B,,B,][B,,B,][B,,B,][B,,B,] | [B,,F,]2 [B,,F,]2 [B,,B,][B,,B,][B,,B,][B,,B,] | %15
w: full of glo- ry, It is|joy un- speak- a- ble and|
 [B,,B,]2 [B,,F,]2 [B,,B,][B,,B,][B,,B,][D,B,] | [E,B,]2 [C,E]2 [F,D][F,C][F,B,][F,C] | [B,,B,]6 |] %18
w: full of glo- ry, Oh, the|half has nev- er yet been|told.|

